!!!!SEGMENT: pl-kk--kk-i-388--016_anonim--assumpta-es-maria.krn
!!!id: 18xx:1413
!!!COM: Anonim
!!!COM-rism: pe30004985
!!!CDT:
!!!CNT:
!!!OTL: Assumpta es Maria
!!!PDT:
!!!SMS-siglum: PL-Kk
!!!SMS-shelfmark: Kk.I.388
!!!NIFC-rismID: 1001140960
!!!URL-scan: http://repozytorium.nifc.pl/skany/pl-kk-nut--i-388
!!!ONB-nifc:
!!!SMS-variant:
!!!SMS-altvar:
**kern	**text	**kern	**text	**kern	**text	**kern	**text
*part4	*part4	*part3	*part3	*part2	*part2	*part1	*part1
*staff4	*staff4	*staff3	*staff3	*staff2	*staff2	*staff1	*staff1
*I"Baſso.	*	*I"Tenore.	*	*I"Alto.	*	*I"Soprano.	*
*I'B	*	*I'T	*	*I'A	*	*I'S	*
*clefF4	*	*clefC4	*	*clefC3	*	*clefC1	*
*k[f#c#]	*	*k[f#c#]	*	*k[f#c#]	*	*k[f#c#]	*
*M3/4	*	*M3/4	*	*M3/4	*	*M3/4	*
=1	=1	=1	=1	=1	=1	=1	=1
!LO:TX:a:i:B:t= No 16.	!	!LO:TX:a:i:B:t= No 16.	!	!LO:TX:a:i:B:t= No 16.	!	!LO:TX:a:i:B:t= No 16.	!
!LO:TX:a:t=P:problem: numer przed kluczem	!	!LO:TX:a:t=P:problem: numer przed kluczem	!	!LO:TX:a:t=P:problem: numer przed kluczem	!	!LO:TX:a:t=P:problem: numer przed kluczem	!
!LO:TX:a:t=P:problem: wszystkie caudy z prawej strony	!	!LO:TX:a:t=P:problem: wszystkie caudy z prawej strony	!	!LO:TX:a:t=P:problem: wszystkie caudy z prawej strony	!	!LO:TX:a:t=P:problem: wszystkie caudy z prawej strony	!
!LO:TX:a:t=P:problem: metrum z kreską ułamkową; kropka w mianowniku	!	!LO:TX:a:t=P:problem: metrum z kreską ułamkową; kropka w mianowniku	!	!LO:TX:a:t=P:problem: metrum z kreską ułamkową	!	!LO:TX:a:t=P:problem: metrum z kreską ułamkową	!
!	!	!	!	!	!	!LO:TX:a:t=P:problem: c# przy kluczu na 4. polu	!
4D\	A[s]-	4d\	A[s]-	4a\	A[s]-	4ff#\	A[s]-
4F#\	-sum-	8c#\L	-sum-	4a\	-sum-	8ee\L	-sum-
.	.	8d\J	.	.	.	8dd\J	.
!LO:TX:a:t=P:problem: mixed beam	!	!	!	!	!	!	!
8G\L	-pta	4c#\	-pta	8a\L	-pta	8ee\L	-pta
8AA/J	.	.	.	8g\J	.	8ff#\J	.
=2	=2	=2	=2	=2	=2	=2	=2
*2\right	*	*2\right	*	*2\right	*	*2\right	*
2D\	est	2A\	est,	2f#\	est,	2dd\	est,
4r	.	4r	.	4r	.	4r	.
=3	=3	=3	=3	=3	=3	=3	=3
4AA/	Ma-	4f#\	Ma-	4dd\	Ma-	4aa\	Ma-
4A\	-ri-	8d\L	-ri-	8a\L	-ri-	4ff#\	-ri-
.	.	8d#X\J	.	8a#X\J	.	.	.
8AA/	-a	8e\	-a	8b\L	-a	8gg\	-a
8AA/	in	8A\	in	8g\J	in	8cc#\	in
=4	=4	=4	=4	=4	=4	=4	=4
!LO:SIC:l:v:s=cae-	!	!LO:SIC:l:v:s=cae-	!	!LO:SIC:l:v:s=cae-	!	!LO:SIC:l:v:s=cae-	!
4D\	cel-	4A\	cel-	4f#\	ce-	4ee\	ce-
4D\	-lum	4A\	-lum,	4f#\	-lum,	4dd\	-lum,
4r	.	4r	.	8r	.	8r	.
.	.	.	.	[>8c#\	gau-	[>8a\	gau-
=5	=5	=5	=5	=5	=5	=5	=5
!	!	!LO:TX:a:t=1.	!	!	!	!	!
8r	.	2.r	.	4.c#\]	.	4.a\]	.
8AA/	gau-	.	.	.	.	.	.
8G\L	.	.	.	.	.	.	.
8F#\J	-dent	.	.	8d\	-dent	8b\	-dent
8E\	an-	.	.	8g\	an-	8cc#\	an-
8D\	-ge-	.	.	8f#\	-ge-	8dd\	-ge-
!LO:LB:g=original	!	!	!	!LO:LB:g=original	!	!LO:LB:g=original	!
=6	=6	=6	=6	=6	=6	=6	=6
(<4BB#X/	-li,	8r	.	(>4f#\	-li,	(>4dd\	-li
.	.	8A\	gau-	.	.	.	.
4C#/)	.	8.A\L	.	4g\)	.	4ee\)	.
.	.	16G#X\Jk	-dent	.	.	.	.
4r	.	16B\LL	an-	8r	.	8r	.
.	.	16A\	.	.	.	.	.
.	.	16Gn\	-ge-	[>8c#\	gau-	[>8a\	gau-
.	.	16E\JJ	.	.	.	.	.
!	!	!LO:LB:g=original	!	!	!	!	!
=7	=7	=7	=7	=7	=7	=7	=7
8r	.	4C#/	-li	4.c#\]	.	4.a\]	.
8AA/	gau-	.	.	.	.	.	.
8G\L	.	4r	.	.	.	.	.
8F#\J	-dent	.	.	8d\	-dent	8b\	-dent
8E\	an-	4r	.	8g\	an-	8cc#\	an-
8D\	-ge-	.	.	8f#\	-ge-	8dd\	-ge-
=8	=8	=8	=8	=8	=8	=8	=8
(<4BB#X/	-li,	8r	.	4f#\	-li,	4dd#X\	-li,
.	.	8A\	gau-	.	.	.	.
4C#/)	.	8.A\L	.	4g\	.	4ee\	.
.	.	16G#X\Jk	-dent	.	.	.	.
8r	.	16B\LL	an-	8r	.	8r	.
.	.	16A\	.	.	.	.	.
8C#/	lau-	16Gn\	-ge-	8a\	lau-	8a\	lau-
.	.	16E\JJ	.	.	.	.	.
=9	=9	=9	=9	=9	=9	=9	=9
!	!	!	!	!	!	!LO:SIC:l:v:s=-dan-	!
8D/L	-dan-	8A\L	-li,	(>8d\L	-dan-	4ff#\	-dam-
8C#/J	.	8A#X\J	lau-	8e\J	.	.	.
!	!	!	!	!	!	!LO:TUP:a:problem:klamra łukowa	!
4BB/	-tes,	(>4B\	-dan-	8d\L	.	12ff#\L	.
.	.	.	.	.	.	12ee\	.
.	.	.	.	8f#\J	.	.	.
.	.	.	.	.	.	12dd\J	.
!	!	!	!	!	!	!LO:TUP:a:problem:klamra łukowa	!
4E\	lau-	4d\)	.	4g#X\	.	12dd\L	-tes
.	.	.	.	.	.	12cc#\	.
.	.	.	.	.	.	12b\J	.
=10	=10	=10	=10	=10	=10	=10	=10
4AA/	-dan-	4c#\	-tes,	4e\)	-tes	2a\	lau-
4r	.	4r	.	4r	.	.	.
4AA/	-tes,	8F#/L	et	8d\L	et	8a\	-dan-
.	.	8A/J	.	8f#\J	.	8dd\	-tes
!	!	!	!	!	!	!LO:LB:g=original	!
=11	=11	=11	=11	=11	=11	=11	=11
8AA/	be-	8c#\	be-	8gn\	be-	8.ff#\	be-
8AA/	-ne-	8c#\	-ne-	8g\	-ne-	.	.
.	.	.	.	.	.	16ee\	-ne-
!	!	!	!	!LO:LB:g=original	!	!	!
4AA/	-di-	4G/	-di-	4c#\	-di-	4a\	-di-
!LO:LB:g=original	!	!	!	!	!	!	!
4AA/	-cunt,	8F#/L	-cunt	8d\L	-cunt,	8a\L	-cunt
.	.	8A/J	.	8f#\J	.	8dd\J	.
!	!	!LO:LB:g=original	!	!	!	!	!
=12	=12	=12	=12	=12	=12	=12	=12
8AA/	be-	8c#\	be-	8g\	be-	8.ff#\	be-
8AA/	-ne-	8c#\	-ne-	8g\	-ne-	.	.
.	.	.	.	.	.	16ee\	-ne-
4AA/	-di-	4G/	-di-	4c#\	-di-	4a\	-di-
4D\	-cunt	4d\	-cunt	8f#\L	-cunt	8aa\L	-cunt
.	.	.	.	8b\J	.	8dd\J	.
=13	=13	=13	=13	=13	=13	=13	=13
2E\	Do-	2d\	Do-	4.b\	Do-	2gg\	Do-
.	.	.	.	8b-X\	.	.	.
4AA/	-mi-	8G/L	.	8a\L	.	8cc#\L	.
.	.	.	.	.	.	16qqdd/LL	.
.	.	.	.	.	.	16qqcc#/JJ	.
.	.	8E/J	-mi-	8g\J	-mi-	16b\L	-mi-
.	.	.	.	.	.	16cc#\JJ	.
=14	=14	=14	=14	=14	=14	=14	=14
2D\	-num.	(<4A/	-num.	2f#\	-num.	2dd\	-num.
.	.	4F#/)	.	.	.	.	.
!	!	!	!	!	!	!	!
4r	.	4r	.	4r	.	4r	.
!LO:TX:a:i:t=Da Capo.	!	!LO:TX:a:i:t=Da Capo.	!	!LO:TX:a:i:t=Da Capo.	!	!LO:TX:a:i:t=Da Capo.	!
!LO:TX:a:t=P:problem: "Da Capo" na pięciolinii za końcową kreską taktową	!	!LO:TX:a:t=P:problem: "Da Capo" na pięciolinii za końcową kreską taktową	!	!LO:TX:a:t=P:problem: "Da Capo" na pięciolinii za końcową kreską taktową	!	!LO:TX:a:t=P:problem: "Da Capo" na pięciolinii za końcową kreską taktową	!
==	==	==	==	==	==	==	==
*-	*-	*-	*-	*-	*-	*-	*-
!!!system-decoration: [(s1,s2,s3,s4)]
!!!RDF**kern: > = above
!!!RDF**kern: < = below
!!!EED: Mateusz Mrugas
!!!EST: 2021-01-19
!!!ENC: Andrzej Gręziak
!!!END: 2021-01-15
